X:4
T:Trip to Chester
R:slipjig
C:trad
B:William Vickers MS
S: "NeroTed" <neil:brookes36.freeserve.co.uk> tradtunes 2001-04-28
M:9/8
L:1/8
K:G
|g2d B/2c/2dB dBG|g2d B/2c/2dB AFD|g2d B/2c/2dB dBG|B/2c/2dB ADF G3:|
|g/2a/2bg bge bge|f/2g/2af afd afd|gfg eba gfe|f/2g/2af eA^cd2 B|
cdc afd afd|BcB gdB gdB|gfedecBAG|B/2c/2dB ADFG3|
